X:1
T: Miss Johnston of Hilton's Reel
C:
R:Reel
Q: 232
K:G
M:4/4
L:1/8
|:d|BG dG Bc dB|cA eA cd ec|BG dG Bc dg|ec Ad BG Gd|
BG dG Bc dB|cA eA cd ec|BG dG Bc dg|ec Ad BG Gd|
ga gd Bc dB|Aa ag fg ab|ga gd BG dB|ce dc BG Gd|
ga gd Bc dB|Aa ag fg ab|gb ab ga fg|ea fd g1/2g1/2f f:|
